public/avatar/shoe/138.svg

<svg xmlns:xlink="http://www.w3.org/1999/xlink" height="38.3" width="36.05" xmlns="http://www.w3.org/2000/svg"><use height="19.5" transform="translate(10.1 12.15)" width="21.55" xlink:href="#a"/><defs><g id="a" fill-rule="evenodd"><path d="M5.9 1.95Q3.65.25-4.6 4.45-8.7 6.55-12.35 9l-.95 1.35q-.75 1.7-.1 3 .05 1.35 1.7 1.85 4.35 2.4 10.4 1.15 4.15-1 5.85-3.85.55-1.75 1.8-2.55 3.25-5.35-.45-8" fill="#022321" transform="translate(13.7 2.7)"/><path d="M5.9 2.6q-1.55-1.25-10.25 3l-8.3 4.5-.25 1.85q-.05 1.9.95 2.65 5.35 2.75 10.9.9 3.65-1.05 4.9-3.45Q4.3 10.5 5.6 9.3q2.95-4.55.3-6.7" fill="#007478" transform="translate(13.7 2.7)"/><path d="M6.85 4.25q-.2 2-2.4 3.85-.75.6-1.25 2.15-.05.55-1.65 2.35-4.45 2.65-10.4 1.45-4.25-1-3.75-3.85-1.45 3.75 3.95 4.4 2.75.7 6.1.1l2.75-.75q1.95-.9 2.95-2.35L4.9 8.45q1.55-1.4 1.9-3.1l.05-1.1" fill="#004f4d" transform="translate(13.7 2.7)"/><path d="M5.9 2.6Q4.45 1.5-3.95 4.95q-4.2 1.65-8 3.55v.05q-2.75 4.4 3.05 5.5 5.75 1 9.1-.8 1.85-.55 3.1-2.95.3-1.7 1.15-2.1L6.2 6.25Q7.65 4 5.9 2.6" fill="#00a8ab" transform="translate(13.7 2.7)"/><path d="M3.8-1.7q-1.6-.8-4.65-1l-2.7.3Q-6.4-1.65-7.6.7l-1.25 3.25-3 4.05q-1 1.75-.55 2.7 1 2.25 4.5 2 2.25 1.75 5.55.4 3.95-.15 5.9-5.05L5.1 6.6q2.35-2.9-.4-7.5l-.9-.8" fill="#21100a" transform="translate(13.7 2.7)"/><path d="M-4.1-1.3q-2 .75-3.1 3.05l-1.9 4.1-2.2 2.85q-1.05 3.25 1.75 3.15 1.4.25 2.4-.5.55 2.7 6.05.5 2.95-1.25 3.65-3.9 2.35-1.9 3-4.35 0-1.6-1-3.05-2-2.95-6.85-2.2l-1.8.35" fill="#c98036" transform="translate(13.7 2.7)"/><path d="m-7.4 11.75.6.45q-.85-.7-.5-3.7-1.15 1.3-.1 3.25" fill="#21100a" transform="translate(13.7 2.7)"/><path d="m-7.65 10.8.25-1.95-.65-.55q-.6.4.4 2.5" fill="#21100a" transform="translate(13.7 2.7)"/><path d="M-.35-1.9q-3.55-.05-5.2 1.35Q-7.9 1.5 4.3.3 3.45-.95 1.45-1.5l-1.8-.4m1.55 9L-.95 9.5q-.45 1.25-.15.25-2.7 1.5-4.35.35-.5 2 .55 2.25 4.95.75 7.45-4.6l2.55-3.3q.7-1.6-.15-2.6L3.7 4.3Q2.3 6.75 1.45 7l-.25.1" fill="#965112" transform="translate(13.7 2.7)"/><path d="M3.55 5.35Q3.1 5.7 2.6 6-.8 7.45-.95 9.5l-.75 1h.75L.7 9.3l2.85-3.95M-8.1 9.55q-2 1.9-3.45 1.2.7 2.1 4 .75l-.55-1.95" fill="#965112" transform="translate(13.7 2.7)"/><path d="M1.45 11.5q1-.45 1.45-1.45l.25-.95q-3.2-3.8-6.8-3.85-1.8 0-2.95.7-1.5-.95-3-.9l-1.2.2q-1.3.2-.8 2.35.95-.55 2.65.45.85.5 1.55 1.05 1.35-1.8 5.25.15l3.6 2.25" fill="#022321" transform="translate(13.7 2.7)"/><path d="M1.45 11.2q.95-.4 1.2-1.25l.15-.75q-3-3.35-6.6-3.4-1.75-.05-2.9.55-.6-.65-2.2-.85h-1.45q-.75.45-1 1.75.9-.45 2.55.35l1.45.95q2.25-1.6 5.75.3 1.75 1 3.05 2.35" fill="#00a8ab" transform="translate(13.7 2.7)"/><path d="M-11.6 7.45q-.1.5.3.5l.6-.5h-.9" fill="#2b0112" transform="translate(13.7 2.7)"/><path d="M1.4 10.95q.7-.15 1.05-.9l.25-.75-1.6-1.7-4.9.15 5.2 3.2M-6.7 6.3q-1.4 1.4-1.85.9l-1.55.05 1.05.35 1.7.9.65-2.2" fill="#004f4d" transform="translate(13.7 2.7)"/><path d="M-7.85 6.35q-.2-.25-.55-.4-.7-.4-1.65-.25l-.8.55-.1.3q.25-.3.75-.5 1.05-.35 2.35.3m1.5.4q1.3-.5 2.8-.45l1.25.2-.4-.5q-1.7-.45-3.65.75" fill="#fff" transform="translate(13.7 2.7)"/></g></defs></svg>

<?xml version="1.0" encoding="UTF-8" standalone="no"?>
<svg xmlns:xlink="http://www.w3.org/1999/xlink" height="38.3px" width="36.05px" xmlns="http://www.w3.org/2000/svg">
  <g transform="matrix(1.0, 0.0, 0.0, 1.0, 23.8, 14.85)">
    <use height="19.5" transform="matrix(1.0, 0.0, 0.0, 1.0, -13.7, -2.7)" width="21.55" xlink:href="#shape0"/>
  </g>
  <defs>
    <g id="shape0" transform="matrix(1.0, 0.0, 0.0, 1.0, 13.7, 2.7)">
      <path d="M5.9 1.95 Q3.65 0.25 -4.6 4.45 -8.7 6.55 -12.35 9.0 L-13.3 10.35 Q-14.05 12.05 -13.4 13.35 -13.35 14.7 -11.7 15.2 -7.35 17.6 -1.3 16.35 2.85 15.35 4.55 12.5 5.1 10.75 6.35 9.95 9.6 4.6 5.9 1.95" fill="#022321" fill-rule="evenodd" stroke="none"/>
      <path d="M5.9 2.6 Q4.35 1.35 -4.35 5.6 L-12.65 10.1 -12.9 11.95 Q-12.95 13.85 -11.95 14.6 -6.6 17.35 -1.05 15.5 2.6 14.45 3.85 12.05 4.3 10.5 5.6 9.3 8.55 4.75 5.9 2.6" fill="#007478" fill-rule="evenodd" stroke="none"/>
      <path d="M6.85 4.25 Q6.65 6.25 4.45 8.1 3.7 8.7 3.2 10.25 3.15 10.8 1.55 12.6 -2.9 15.25 -8.85 14.05 -13.1 13.05 -12.6 10.2 -14.05 13.95 -8.65 14.6 -5.9 15.3 -2.55 14.7 L0.2 13.95 Q2.15 13.05 3.15 11.6 L4.9 8.45 Q6.45 7.05 6.8 5.35 L6.85 4.25" fill="#004f4d" fill-rule="evenodd" stroke="none"/>
      <path d="M5.9 2.6 Q4.45 1.5 -3.95 4.95 -8.15 6.6 -11.95 8.5 L-11.95 8.55 Q-14.7 12.95 -8.9 14.05 -3.15 15.05 0.2 13.25 2.05 12.7 3.3 10.3 3.6 8.6 4.45 8.2 L6.2 6.25 Q7.65 4.0 5.9 2.6" fill="#00a8ab" fill-rule="evenodd" stroke="none"/>
      <path d="M3.8 -1.7 Q2.2 -2.5 -0.85 -2.7 L-3.55 -2.4 Q-6.4 -1.65 -7.6 0.7 L-8.85 3.95 -11.85 8.0 Q-12.85 9.75 -12.4 10.7 -11.4 12.95 -7.9 12.7 -5.65 14.45 -2.35 13.1 1.6 12.95 3.55 8.05 L5.1 6.6 Q7.45 3.7 4.7 -0.9 L3.8 -1.7" fill="#21100a" fill-rule="evenodd" stroke="none"/>
      <path d="M-4.1 -1.3 Q-6.1 -0.55 -7.2 1.75 L-9.1 5.85 -11.3 8.7 Q-12.35 11.95 -9.55 11.85 -8.15 12.1 -7.15 11.35 -6.6 14.05 -1.1 11.85 1.85 10.6 2.55 7.95 4.9 6.05 5.55 3.6 5.55 2.0 4.55 0.55 2.55 -2.4 -2.3 -1.65 L-4.1 -1.3" fill="#c98036" fill-rule="evenodd" stroke="none"/>
      <path d="M-7.4 11.75 L-6.8 12.2 Q-7.65 11.5 -7.3 8.5 -8.45 9.8 -7.4 11.75" fill="#21100a" fill-rule="evenodd" stroke="none"/>
      <path d="M-7.65 10.8 L-7.4 8.85 -8.05 8.3 Q-8.65 8.7 -7.65 10.8" fill="#21100a" fill-rule="evenodd" stroke="none"/>
      <path d="M-0.35 -1.9 Q-3.9 -1.95 -5.55 -0.55 -7.9 1.5 4.3 0.3 3.45 -0.95 1.45 -1.5 L-0.35 -1.9" fill="#965112" fill-rule="evenodd" stroke="none"/>
      <path d="M1.2 7.1 L-0.95 9.5 Q-1.4 10.75 -1.1 9.75 -3.8 11.25 -5.45 10.1 -5.95 12.1 -4.9 12.35 0.05 13.1 2.55 7.75 L5.1 4.45 Q5.8 2.85 4.95 1.85 L3.7 4.3 Q2.3 6.75 1.45 7.0 L1.2 7.1" fill="#965112" fill-rule="evenodd" stroke="none"/>
      <path d="M3.55 5.35 Q3.1 5.7 2.6 6.0 -0.8 7.45 -0.95 9.5 L-1.7 10.5 -0.95 10.5 0.7 9.3 3.55 5.35" fill="#965112" fill-rule="evenodd" stroke="none"/>
      <path d="M-8.1 9.55 Q-10.1 11.45 -11.55 10.75 -10.85 12.85 -7.55 11.5 L-8.1 9.55" fill="#965112" fill-rule="evenodd" stroke="none"/>
      <path d="M1.45 11.5 Q2.45 11.05 2.9 10.05 L3.15 9.1 Q-0.05 5.3 -3.65 5.25 -5.45 5.25 -6.6 5.95 -8.1 5.0 -9.6 5.05 L-10.8 5.25 Q-12.1 5.45 -11.6 7.6 -10.65 7.05 -8.95 8.05 -8.1 8.55 -7.4 9.1 -6.05 7.3 -2.15 9.25 L1.45 11.5" fill="#022321" fill-rule="evenodd" stroke="none"/>
      <path d="M1.45 11.2 Q2.4 10.8 2.65 9.95 L2.8 9.2 Q-0.2 5.85 -3.8 5.8 -5.55 5.75 -6.7 6.35 -7.3 5.7 -8.9 5.5 L-10.35 5.5 Q-11.1 5.95 -11.35 7.25 -10.45 6.8 -8.8 7.6 L-7.35 8.55 Q-5.1 6.95 -1.6 8.85 0.15 9.85 1.45 11.2" fill="#00a8ab" fill-rule="evenodd" stroke="none"/>
      <path d="M-11.6 7.45 Q-11.7 7.95 -11.3 7.95 L-10.7 7.45 -11.6 7.45" fill="#2b0112" fill-rule="evenodd" stroke="none"/>
      <path d="M1.4 10.95 Q2.1 10.8 2.45 10.05 L2.7 9.3 1.1 7.6 -3.8 7.75 1.4 10.95" fill="#004f4d" fill-rule="evenodd" stroke="none"/>
      <path d="M-6.7 6.3 Q-8.1 7.7 -8.55 7.2 L-10.1 7.25 -9.05 7.6 -7.35 8.5 -6.7 6.3" fill="#004f4d" fill-rule="evenodd" stroke="none"/>
      <path d="M-7.85 6.35 Q-8.05 6.1 -8.4 5.95 -9.1 5.55 -10.05 5.7 L-10.85 6.25 -10.95 6.55 Q-10.7 6.25 -10.2 6.05 -9.15 5.7 -7.85 6.35" fill="#ffffff" fill-rule="evenodd" stroke="none"/>
      <path d="M-6.35 6.75 Q-5.05 6.25 -3.55 6.3 L-2.3 6.5 -2.7 6.0 Q-4.4 5.55 -6.35 6.75" fill="#ffffff" fill-rule="evenodd" stroke="none"/>
    </g>
  </defs>
</svg>
